X: 21773
T: THE SNOW DRIFT VALSE #3
C: Composed by Wm. Findlay
R: waltz
B: K\"ohler's Violin Repository, v.2, 1885 p.177 #3
F: http://www.archive.org/details/klersviolinrepos02rugg
Z: 2012 John Chambers <jc:trillian.mit.edu>
N: Both parts have extra bars in the 2nd endings.
N: The 2nd part's last bars have an extra beat; removed.
M: 3/4
L: 1/8
K: D
uA2 |\
(F4A2) | (d4A2) | (B4g2) | B6 |\
(c2e2a2) | c6 | (d2f3b) | (a4A2) |\
(F4A2) | (d4A2) | (B4g2) | (B4d2) |
c2B2A2 | (G2F2E2) |[1 D6- | D2z2 :|\
[2 c2B2A2 | (c4e2) | d6- | d2z2 |: uA2 |\
((3aba)g2f2 | ((3gag)f2e2 | (dcedcB) | (A4F2) |
(DF).A.d.f.a | (g4f2) | (cf).e.d.c.B | (A4F2) |\
((3aba)g2f2 | ((3gag)f2e2 | (dcedcB) | (A4F2) |\
(DF).A.d.f.a | b4c2 | (df).A.d.F.A |[1 D4 :|\
[2 (dc)feBc | d4 "_D.C."|]

%%sep 2 1 500

